Numix-Light/16/status/indicator-keyboard-Fa-1.svg

<?xml version="1.0" encoding="UTF-8" standalone="no"?>
<svg
   xmlns:dc="http://purl.org/dc/elements/1.1/"
   xmlns:cc="http://creativecommons.org/ns#"
   xmlns:rdf="http://www.w3.org/1999/02/22-rdf-syntax-ns#"
   xmlns:svg="http://www.w3.org/2000/svg"
   xmlns="http://www.w3.org/2000/svg"
   xmlns:sodipodi="http://sodipodi.sourceforge.net/DTD/sodipodi-0.dtd"
   xmlns:inkscape="http://www.inkscape.org/namespaces/inkscape"
   viewBox="0 0 16 16"
   id="svg2"
   version="1.1"
   inkscape:version="0.91 r13725"
   sodipodi:docname="indicator-keyboard-Fa-1.svg">
  <metadata
     id="metadata14">
    <rdf:RDF>
      <cc:Work
         rdf:about="">
        <dc:format>image/svg+xml</dc:format>
        <dc:type
           rdf:resource="http://purl.org/dc/dcmitype/StillImage" />
      </cc:Work>
    </rdf:RDF>
  </metadata>
  <defs
     id="defs12" />
  <sodipodi:namedview
     pagecolor="#ffffff"
     bordercolor="#666666"
     borderopacity="1"
     objecttolerance="10"
     gridtolerance="10"
     guidetolerance="10"
     inkscape:pageopacity="0"
     inkscape:pageshadow="2"
     inkscape:window-width="640"
     inkscape:window-height="480"
     id="namedview10"
     showgrid="false"
     inkscape:zoom="14.75"
     inkscape:cx="8"
     inkscape:cy="8"
     inkscape:window-x="65"
     inkscape:window-y="24"
     inkscape:window-maximized="0"
     inkscape:current-layer="svg2" />
  <path
     style="fill:#353535;fill-opacity:1"
     d="M 1.5996094 0 C 0.71320937 2.9605947e-16 0 0.71320937 0 1.5996094 L 0 14.400391 C 2.9605947e-16 15.286791 0.71320937 16 1.5996094 16 L 14.400391 16 C 15.286791 16 16 15.286791 16 14.400391 L 16 1.5996094 C 16 0.71320937 15.286791 0 14.400391 0 L 1.5996094 0 z M 2.9160156 4.859375 L 6.4707031 4.859375 L 6.4707031 5.390625 L 3.5292969 5.390625 L 3.5292969 7.5859375 L 6.1386719 7.5859375 L 6.1386719 8.1171875 L 3.5292969 8.1171875 L 3.5292969 11.095703 L 2.9160156 11.095703 L 2.9160156 4.859375 z M 8.6171875 6.3359375 C 8.9231875 6.3359375 9.1825781 6.3807031 9.3925781 6.4707031 C 9.6085781 6.5547031 9.7820625 6.6740781 9.9140625 6.8300781 C 10.046063 6.9800781 10.141172 7.1591406 10.201172 7.3691406 C 10.261172 7.5791406 10.291016 7.8086875 10.291016 8.0546875 L 10.291016 10.988281 C 10.231016 11.006281 10.14525 11.026781 10.03125 11.050781 C 9.9172499 11.068781 9.7847656 11.089281 9.6347656 11.113281 C 9.4847656 11.137281 9.3168594 11.155969 9.1308594 11.167969 C 8.9508594 11.185969 8.7642656 11.195313 8.5722656 11.195312 C 8.3262656 11.195312 8.0986719 11.167281 7.8886719 11.113281 C 7.6846719 11.059281 7.5056094 10.975328 7.3496094 10.861328 C 7.1996094 10.741328 7.0782813 10.592109 6.9882812 10.412109 C 6.9042813 10.226109 6.8632812 10.000328 6.8632812 9.7363281 C 6.8632812 9.4843281 6.9098594 9.2698437 7.0058594 9.0898438 C 7.1018594 8.9098438 7.2381094 8.7624375 7.4121094 8.6484375 C 7.5861094 8.5284375 7.7932031 8.4407187 8.0332031 8.3867188 C 8.2732031 8.3327188 8.5344063 8.3066406 8.8164062 8.3066406 C 8.9004062 8.3066406 8.9861719 8.3122187 9.0761719 8.3242188 C 9.1721719 8.3302187 9.2617031 8.341375 9.3457031 8.359375 C 9.4357031 8.371375 9.5122656 8.3862969 9.5722656 8.4042969 C 9.6382656 8.4162969 9.6830313 8.4294063 9.7070312 8.4414062 L 9.7070312 8.1523438 C 9.7070312 7.9903438 9.6939219 7.8355469 9.6699219 7.6855469 C 9.6459219 7.5295469 9.5918125 7.3914844 9.5078125 7.2714844 C 9.4298125 7.1454844 9.3160156 7.0466094 9.1660156 6.9746094 C 9.0220156 6.8966094 8.8298437 6.8574219 8.5898438 6.8574219 C 8.2478437 6.8574219 7.9941719 6.8816875 7.8261719 6.9296875 C 7.6581719 6.9776875 7.5350313 7.016875 7.4570312 7.046875 L 7.375 6.5332031 C 7.477 6.4852031 7.63375 6.4404375 7.84375 6.3984375 C 8.05975 6.3564375 8.3171875 6.3359375 8.6171875 6.3359375 z M 8.796875 8.8105469 C 8.652875 8.8105469 8.5036563 8.8217031 8.3476562 8.8457031 C 8.1916562 8.8637031 8.0480156 8.9084687 7.9160156 8.9804688 C 7.7840156 9.0464688 7.6757969 9.1397656 7.5917969 9.2597656 C 7.5077969 9.3797656 7.4648438 9.5383281 7.4648438 9.7363281 C 7.4648438 9.9103281 7.492875 10.057734 7.546875 10.177734 C 7.606875 10.297734 7.6870625 10.394797 7.7890625 10.466797 C 7.8970625 10.538797 8.0239688 10.592906 8.1679688 10.628906 C 8.3179687 10.658906 8.485875 10.673828 8.671875 10.673828 C 8.899875 10.673828 9.097625 10.666297 9.265625 10.654297 C 9.439625 10.636297 9.5870313 10.615797 9.7070312 10.591797 L 9.7070312 8.953125 C 9.6410313 8.923125 9.5365781 8.8932812 9.3925781 8.8632812 C 9.2485781 8.8272812 9.048875 8.8105469 8.796875 8.8105469 z M 12.814453 8.8417969 L 13.083984 8.8417969 L 13.083984 12.896484 L 12.703125 12.896484 L 12.703125 9.421875 C 12.660225 9.468675 12.603403 9.5157063 12.533203 9.5664062 C 12.466903 9.6171063 12.390488 9.66805 12.304688 9.71875 C 12.218888 9.76555 12.130709 9.812575 12.037109 9.859375 C 11.943509 9.902275 11.849459 9.9375437 11.755859 9.9648438 L 11.644531 9.671875 C 11.878531 9.5899751 12.086231 9.4880813 12.269531 9.3632812 C 12.452831 9.2345813 12.635053 9.0601969 12.814453 8.8417969 z "
     id="path4" />
</svg>

<svg xmlns="http://www.w3.org/2000/svg" viewBox="0 0 16 16">
 <path d="m 1.6 0 c -0.886 0 -1.6 0.713 -1.6 1.6 l 0 12.801 c 0 0.886 0.713 1.6 1.6 1.6 l 12.801 0 c 0.886 0 1.6 -0.713 1.6 -1.6 l 0 -12.801 c 0 -0.886 -0.713 -1.6 -1.6 -1.6 l -12.801 0 z m 1.316 4.859 l 3.555 0 l 0 0.531 l -2.941 0 l 0 2.195 l 2.609 0 l 0 0.531 l -2.609 0 l 0 2.979 l -0.613 0 l 0 -6.236 z m 5.701 1.477 c 0.306 0 0.565 0.045 0.775 0.135 c 0.216 0.084 0.389 0.203 0.521 0.359 c 0.132 0.15 0.227 0.329 0.287 0.539 c 0.06 0.21 0.09 0.44 0.09 0.686 l 0 2.934 c -0.06 0.018 -0.146 0.038 -0.26 0.063 c -0.114 0.018 -0.246 0.038 -0.396 0.063 c -0.15 0.024 -0.318 0.043 -0.504 0.055 c -0.18 0.018 -0.367 0.027 -0.559 0.027 c -0.246 0 -0.474 -0.028 -0.684 -0.082 c -0.204 -0.054 -0.383 -0.138 -0.539 -0.252 c -0.15 -0.12 -0.271 -0.269 -0.361 -0.449 c -0.084 -0.186 -0.125 -0.412 -0.125 -0.676 c 0 -0.252 0.047 -0.466 0.143 -0.646 c 0.096 -0.18 0.232 -0.327 0.406 -0.441 c 0.174 -0.12 0.381 -0.208 0.621 -0.262 c 0.24 -0.054 0.501 -0.08 0.783 -0.08 c 0.084 0 0.17 0.006 0.26 0.018 c 0.096 0.006 0.186 0.017 0.27 0.035 c 0.09 0.012 0.167 0.027 0.227 0.045 c 0.066 0.012 0.111 0.025 0.135 0.037 l 0 -0.289 c 0 -0.162 -0.013 -0.317 -0.037 -0.467 c -0.024 -0.156 -0.078 -0.294 -0.162 -0.414 c -0.078 -0.126 -0.192 -0.225 -0.342 -0.297 c -0.144 -0.078 -0.336 -0.117 -0.576 -0.117 c -0.342 0 -0.596 0.024 -0.764 0.072 c -0.168 0.048 -0.291 0.087 -0.369 0.117 l -0.082 -0.514 c 0.102 -0.048 0.259 -0.093 0.469 -0.135 c 0.216 -0.042 0.473 -0.063 0.773 -0.063 z m 0.18 2.475 c -0.144 0 -0.293 0.011 -0.449 0.035 c -0.156 0.018 -0.3 0.063 -0.432 0.135 c -0.132 0.066 -0.24 0.159 -0.324 0.279 c -0.084 0.12 -0.127 0.279 -0.127 0.477 c 0 0.174 0.028 0.321 0.082 0.441 c 0.06 0.12 0.14 0.217 0.242 0.289 c 0.108 0.072 0.235 0.126 0.379 0.162 c 0.15 0.03 0.318 0.045 0.504 0.045 c 0.228 0 0.426 -0.008 0.594 -0.02 c 0.174 -0.018 0.321 -0.038 0.441 -0.063 l 0 -1.639 c -0.066 -0.03 -0.17 -0.06 -0.314 -0.09 c -0.144 -0.036 -0.344 -0.053 -0.596 -0.053 z m 4.02 0.031 l 0.27 0 l 0 4.055 l -0.381 0 l 0 -3.475 c -0.043 0.047 -0.1 0.094 -0.17 0.145 c -0.066 0.051 -0.143 0.102 -0.229 0.152 c -0.086 0.047 -0.174 0.094 -0.268 0.141 c -0.094 0.043 -0.188 0.078 -0.281 0.105 l -0.111 -0.293 c 0.234 -0.082 0.442 -0.184 0.625 -0.309 c 0.183 -0.129 0.366 -0.303 0.545 -0.521 z" style="fill:#353535;fill-opacity:1"/>
</svg>
